X: 36558
T: Seven Years
R: waltz
M: 3/4
K: Gmajor
D GA|B4 BA|Bd dD GA|B4 BA|Bd ed gf|
d2 B3 A|B2 GA Bd|ed dB BG|A3:|
AB|c3B cd|B2 AG AB|c3B cd|Bd gf dB|
c3B cd|B2 AG Bd|ed dB BG|A4:|
ef|gf ed (3Bcd|e3d GA|B3G cA|dB ec ef|
gf ed (3Bcd|e3d GA|B3G Bd|A4:|

